rospo-newyear-dark/symbolic/apps/gnome-power-manager-symbolic.svg

<svg height="16" width="16" xmlns="http://www.w3.org/2000/svg"><path d="m8 0c-4.42 0-8 3.58-8 8s3.58 8 8 8 8-3.58 8-8-3.58-8-8-8zm0 3.43v3.57h3.43l-3.43 5.57v-3.57h-3.43z" fill="#d3dae3"/></svg>

<svg xmlns="http://www.w3.org/2000/svg" width="16" height="16" version="1.1">
 <path style="fill:#d3dae3" d="M 8,0 C 3.58,0 0,3.58 0,8 0,12.42 3.58,16 8,16 12.42,16 16,12.42 16,8 16,3.58 12.42,0 8,0 Z M 8,3.43 V 7 H 11.43 L 8,12.57 V 9 H 4.57 Z"/>
</svg>
